X:1
T:Las voulez vou
T:Noé Faignient
T:Source: La fleur des chansons à 3---Louvain---P.Phalèse---1574. Editor : André Vierendeels (21/08/18) Notes : Original clefs : C1, C3, C4 Original note values have been halved Editorial accidentals above the staff Square brackets indicate ligatures    
T:Las voulez vous
T:©
T:©
T:©
T:©
C:Noé Faignient
Z:©
%%score [ 1 [ 2 3 ] ]
L:1/8
Q:1/4=120
M:2/2
K:C
V:1 treble nm="Soprano" snm="s"
V:2 treble-8 nm="Tenor 1" snm="T 1"
V:3 treble-8 nm="Tenor 2" snm="T 2"
V:1
 z8 | z4 A4 | c6 B2 | B2 G2 A2 c2 | c2 B2 A2 G2- | G2 G2 E3 D/C/ | D2 D2 E2 G2 | A2 c2 c2 B2- | %8
w: |Las,|vou- lez|vous qu'u- ne per-|son- * ne chan-|* te, las, _ _|vou- lez vous qu'u-|ne per- son- ne|
 B2 A3 G/F/ ^G2 | A4 A4 | G2 G2 E4- | E2 c4 A2- | AGFE F2 G2 | E2 z C D2 E2 | FE E4 D2 | E4 A2 E2 | %16
w: _ chan- * * *|te, à|qui le cueur,|_ à qui|_ _ _ _ _ le|cueur ne fait que|sous- * pi- *|rer, lais- sez|
 GABc d2 A2 | c4 G4 | DEFG AB c2 | B2 B2 e2 d2 | c2 B2 A4 | G4 G2 z G | A2 B2 c4 | z4 z2 A2 | %24
w: chan- * * * * ter,|lais- sez|chan- * * * * * *|ter cel- luy qui|se con- ten-|* te, et|me lais- sez|et|
 B2 ^c2 d2 B2 | c3 c B2 A2 | ^G2 G2 A3 E |"^-natural" G2 F2 E4- | E4 z4 | z2 c2 d3 B | %30
w: me lais- sez mon|mal en- du- *|rer, mon mal en-|du- * rer,|_|mon mal en|
 c2 A3 G/F/ ^G2 | A2 z A A2 A2 | ^G2 B2 c3 G | _B2 A2 G4 | z4 c4 | d3 B c2 B2 | A2 c2 B2 A2 | %37
w: du- * * * *|rer, et me lais-|sez mon seul mal|en- du- rer,|et|me lais- sez mon|mal, mon seul mal|
 GE A4 ^G2 | A8 |] %39
w: en- * du- *|rer.|
V:2
 z8 | d4 f4- | f2 e2 e2 e2 | g2 e2 f2 e2 | d4 c4 | z2 G2 A2 c2 | c2 B2 cded | cB c3 A d2- | %8
w: |Las, vou-|* lez vous qu'u-|ne per- son- ne|chan- te,|qu'u- ne per-|son- ne chan- * * *||
 dccB/A/ B4 | A2 c2 d2 c2- | cB/A/ B2 c2 g2- | g2 e3 dcB | A6 B2 | c2 c2 B2 c2 | A2 G2 A2 A2- | %15
w: |te, à qui le|_ _ _ _ cueur, à|_ qui _ _ _|_ le|cueur ne fait que|sous- pi- rer, lais-|
 A2 ^G2 ABcd | e2 d4 f2 | e2 cd ecdc | Bc d2 c4 | d4 c2 B2 | e2 d2 cB c2- | cB/A/ B2 c2 e2 | %22
w: * sez chan- * * *|* ter, lais-|sez chan- * * * * *|* * * ter|cel- luy qui|se con- ten- * *|* * * * te, et|
 f2 d2 c2 A2 | B2 ^c2 d2 ^f2 | g2 e2 d4 | z4 d4 | e3 B d2 c2 | B2 d2 c3 c |"^#" c2 A3 G/F/ ^G2 | %29
w: me lais- sez, et|ma lais- sez, et|me lais- sez|mon|seul mal en- du-|rer, mon seul mal|en- du- * * *|
 A2 c2 B2 B2 | A2 c2 d2 B2 | c2 z c c2 d2 | B2 e2 e2 e2 | d2 f2 e2 e2 | f3 d e2 e2 | g2 G2 A2 B2 | %36
w: rer, et me lais-|sez, et me lais-|sez, et me lais-|sez mon seul mal|en- du- rer, mon|seul mal en- du-|rer, et me lais-|
 c2 e2 d3 A | c4 B4 | ^c8 |] %39
w: sez mon seul mal|en du-|rer.|
V:3
 A4 E4 | G4 F2 D2 | A6 E2 | E4 z4 |"^#" z2 G2 A2 c2 | c2 B2 A4 | G4 z2 E2 | F2 A2 A2 G2 | F4 E4 | %9
w: Las, vou-|lez vous, las,|vou- lez|vous|qu'u- ne per-|son- ne chan-|te, qu'u-|ne per son- ne|chan- te,|
 z2 A2 F4 | G4 C4 | c4 A3 G | FE D4 G2 | C4 z2 C2 | D2 E2 F3 F | E4 z2 A2 | E2 GA Bc d2 | %17
w: à qui|le cueur,|à qui _|_ _ _ le|cueur ne|fair que sous- pi-|rer, lais-|sez chan- * * * *|
 A4 c2 G2- | G2 DE FG A2 | G4 z2 G2 | c2 G2 A2 F2 | G4 C4 | z4 z2 F2 | G2 E2 D4 | z4 z2 G2 | %25
w: ter, lais- sez|_ chan- * * * *|ter, cel-|luy qui se con-|ten- te,|et|me lais- sez|mon|
 A3 E G2 F2 |"^#" E4 z2 A2 |"^-natural" G2 D2 A4 |"^-natural" z2 c2 d3 B |"^#" c2 A3 G/F/ ^G2 | %30
w: mal en- du- *|rer, et|me lais- sez|mon seul mal|en- du- * * *|
 A2 F2 D2 E2 | A2 z A F2 D2 | E2 E2 A3 E | G2 F2 C2 c2 | d3 B c2 A2 | G4 z2 G2 | A3 E G2 F2 | %37
w: rer, et me lais-|sez, et me lais-|sez mon seul mal|en- fu- rer, mon|seul mal en- du-|rer, mon|seul _ _ mal|
 C3 D E4 | A8 |] %39
w: en- * du-|rer.|

